X:1
T:[ID 7-7 (Variante mit 10 Taktigem B-Teil)]
T:[ID 7-7 (Variante mit 10 Taktigem B-Teil)]
T:Bezeichnung standardisiert: Menuett Men\"uet In dieser Quelle auch als: Menuetto
T:Urheber unbekannt Datum in der hier transkribierten schriftlichen Quelle: 1776 - 1791
C:Urheber unbekannt
C:Datum in der hier transkribierten schriftlichen Quelle: 1776 - 1791
L:1/8
M:3/4
K:G
V:1 treble 
V:1
 g4 (3gab | d2 Tc2 B2 | A4 (3cde | d2 F2 G2 | GBdgbg | a2 ^c2 d2 | e2 d2 ^c2 |{^c} d6 :: %8
 d4 (3:2:2de=f x/24 | e/=f/e/d/ c/d/c/B/ A2 | c4 (3cde | d/e/d/c/ B/c/B/A/ G2 | %12
"^1)" [EB]2 [GB]2 [FA]2 | [B,G]2 [A,F]2 [B,E]2 |"^1)" [EB]2 [GB]2 [FA]2 | [B,G]2 [A,F]2 [B,E]2 | %16
 [FA]2 [B,G]2 F2 | [B,G]6 :| %18

